public/fingerprint.svg

<svg width="24" height="23" viewBox="0 0 24 23" fill="none" xmlns="http://www.w3.org/2000/svg">
<path d="M17.1268 1.64198C17.6261 1.87793 17.7846 2.49938 17.5079 2.97735C17.2312 3.45532 16.6178 3.61897 16.1146 3.39144C15.03 2.90105 13.8639 2.60736 12.6709 2.52704C11.1445 2.42427 9.61495 2.67353 8.20017 3.25558C6.78538 3.83764 5.52323 4.73694 4.51108 5.88409C3.72001 6.78067 3.09818 7.80992 2.67268 8.92158C2.47526 9.43738 1.92433 9.75272 1.39138 9.60784C0.858439 9.46297 0.533708 8.90992 0.722442 8.39089C1.23443 6.98287 2.00666 5.68028 3.00179 4.55242C4.21793 3.17408 5.73445 2.09354 7.43437 1.39418C9.13428 0.694818 10.9721 0.395325 12.8061 0.518809C14.3068 0.619852 15.7722 1.0019 17.1268 1.64198Z" fill="#0F0F0F"/>
<path d="M20.0201 8.40791C19.4756 7.33857 18.7228 6.38892 17.8059 5.61481C16.889 4.8407 15.8265 4.25777 14.681 3.9003C13.5355 3.54284 12.3301 3.41806 11.1357 3.5333C9.94123 3.64854 8.7819 4.00148 7.72587 4.57136C6.66984 5.14124 5.73843 5.91654 4.98644 6.85167C4.23444 7.7868 3.67705 8.86287 3.34704 10.0166C3.18538 10.5817 3.07988 11.16 3.03121 11.7428C3.01084 11.8224 3 11.9058 3 11.9917V16.8249C3 17.6493 2.79646 18.1373 2.6425 18.3939C2.53296 18.5764 2.43609 18.663 2.41696 18.6792C1.98077 18.9919 1.86799 19.5965 2.16796 20.0464C2.47432 20.5059 3.09519 20.6301 3.55471 20.3237C3.63204 20.2721 3.72468 20.2021 3.86337 20.0634C4.00971 19.917 4.1868 19.7073 4.3575 19.4228C4.70354 18.8461 5 18.0007 5 16.8249V12.3258C5.01408 11.7316 5.10381 11.1402 5.26803 10.5661C5.52478 9.66849 5.95843 8.83131 6.54348 8.10378C7.12852 7.37625 7.85315 6.77307 8.67474 6.32971C9.49633 5.88634 10.3983 5.61176 11.3276 5.5221C12.2568 5.43244 13.1946 5.52952 14.0858 5.80763C14.977 6.08573 15.8036 6.53925 16.517 7.14151C17.2303 7.74376 17.816 8.48259 18.2396 9.31453C18.4483 9.72426 18.6155 10.1525 18.7396 10.5929C19.0927 12.0817 19.2646 13.0858 19.3135 14.1621C19.3722 15.4523 19.2562 16.8797 19.005 19.3922C18.95 19.9417 19.351 20.4318 19.9005 20.4867C20.45 20.5417 20.9401 20.1407 20.995 19.5912C21.2438 17.1036 21.3778 15.5311 21.3115 14.0713C21.2632 13.0092 21.11 12.0241 20.841 10.8075C20.7991 10.5873 20.7489 10.3688 20.6907 10.1525C20.5353 9.49655 20.3195 8.99574 20.0201 8.40791Z" fill="#0F0F0F"/>
<path d="M1.17257 10.5023C0.634077 10.4034 0.113017 10.7597 0.0588556 11.3045C-0.081407 12.7154 0.0295143 14.1402 0.386451 15.5124C0.52428 16.0423 1.09421 16.3137 1.6109 16.1326C2.1276 15.9515 2.39451 15.3865 2.26536 14.8545C2.01211 13.8111 1.92824 12.7337 2.01696 11.6638C2.06221 11.1181 1.71107 10.6013 1.17257 10.5023Z" fill="#0F0F0F"/>
<path d="M23.9985 12.3C24.0072 12.8472 23.5308 13.2608 22.9847 13.2244C22.4387 13.188 22.0308 12.7151 22.0131 12.1681C21.9681 10.7782 21.6341 9.40896 21.0282 8.14921C20.4222 6.88947 19.561 5.77385 18.5032 4.87111C18.0869 4.51589 17.9721 3.90197 18.2845 3.45266C18.5969 3.00335 19.2174 2.8893 19.6395 3.23767C20.9753 4.34046 22.0598 5.72212 22.814 7.29022C23.5683 8.85832 23.9708 10.568 23.9985 12.3Z" fill="#0F0F0F"/>
<path d="M17.9942 12.7555C17.9699 13.3073 17.4295 13.6527 16.8895 13.5372L16.536 13.4616C15.9959 13.3461 15.6665 12.8095 15.6311 12.2583C15.6174 12.0452 15.5849 11.8331 15.5337 11.6244C15.4026 11.0905 15.1523 10.5932 14.8015 10.1699C14.4507 9.74667 14.0086 9.40838 13.5083 9.18049C13.008 8.95261 12.4626 8.84105 11.913 8.85419C11.3634 8.86734 10.8239 9.00485 10.3351 9.25639C9.84631 9.50793 9.42084 9.86697 9.09069 10.3065C8.76054 10.7461 8.53428 11.2548 8.42891 11.7943C8.38773 12.0052 8.36543 12.2187 8.36194 12.4322C8.35291 12.9844 8.04949 13.5362 7.51555 13.6774L7.16611 13.7698C6.63217 13.9109 6.07591 13.5918 6.02528 13.0418C5.97314 12.4756 6.00161 11.9031 6.11124 11.3417C6.28499 10.452 6.65809 9.6132 7.20252 8.88835C7.74694 8.1635 8.44854 7.57144 9.25461 7.15664C10.0607 6.74185 10.9503 6.51509 11.8565 6.49341C12.7628 6.47174 13.6622 6.6557 14.4872 7.03149C15.3122 7.40727 16.0413 7.96511 16.6197 8.6631C17.1982 9.36109 17.611 10.1811 17.827 11.0615C17.9634 11.617 18.0192 12.1875 17.9942 12.7555Z" fill="#0F0F0F"/>
<path d="M8 15.9917C8 15.4394 7.55229 14.9917 7 14.9917C6.44772 14.9917 6 15.4394 6 15.9917C6 17.5965 5.65647 18.8455 5.32153 19.6828C5.15388 20.1019 4.98845 20.4177 4.86959 20.6224C4.81545 20.7156 4.75944 20.8085 4.69662 20.8962C4.36925 21.3378 4.45969 21.9615 4.9 22.2917C5.34183 22.6231 5.96863 22.5335 6.3 22.0917C6.40836 21.9424 6.50656 21.7861 6.59917 21.6266C6.76156 21.347 6.97112 20.944 7.17848 20.4256C7.59354 19.3879 8 17.8869 8 15.9917Z" fill="#0F0F0F"/>
<path d="M17 14.9917C17.5523 14.9917 18 15.4394 18 15.9917C18 17.7893 17.8716 19.2085 17.7412 20.1864C17.676 20.6753 17.6103 21.054 17.5599 21.3145C17.5328 21.4546 17.5049 21.5949 17.4704 21.7334C17.3364 22.2692 16.7933 22.5958 16.2575 22.4618C15.7222 22.328 15.3965 21.786 15.5295 21.2507C15.5555 21.1462 15.5759 21.0401 15.5963 20.9345C15.6397 20.7107 15.699 20.3706 15.7588 19.922C15.8784 19.0249 16 17.6941 16 15.9917C16 15.4394 16.4477 14.9917 17 14.9917Z" fill="#0F0F0F"/>
<path d="M11.8239 11.9393C12.5509 11.6904 12.6356 12.3309 12.7294 12.9518C12.9398 14.3453 12.7861 16.5664 12.5049 19.3929C12.4502 19.9424 12.8514 20.4323 13.401 20.487C13.9506 20.5416 14.4404 20.1404 14.4951 19.5909C14.7695 16.8325 14.9622 14.3433 14.7069 12.6531C14.5821 11.8263 14.3206 10.9586 13.6907 10.3992C12.9687 9.75784 12.0495 9.74811 11.1761 10.0472C10.7476 10.1939 10.3575 10.3998 10.0434 10.707C9.71867 11.0245 9.52989 11.3965 9.42805 11.7842C9.33149 12.1519 9.31356 12.5326 9.31671 12.8835C9.31983 13.2316 9.34613 13.6294 9.36662 14.0162C9.4486 15.5633 9.49899 17.7889 8.08086 21.0979C7.8633 21.6055 8.09845 22.1934 8.60608 22.4109C9.11371 22.6285 9.70159 22.3933 9.91915 21.8857C11.501 18.1947 11.455 15.632 11.3638 13.9104C11.341 13.4802 11.3192 13.1554 11.3166 12.8656C11.3125 12.4006 11.3453 12.1032 11.8239 11.9393Z" fill="#0F0F0F"/>
</svg>

<svg width="24" height="23" fill="none" xmlns="http://www.w3.org/2000/svg"><path d="M17.127 1.642c.5.236.658.857.38 1.335-.276.478-.89.642-1.392.414a9.987 9.987 0 0 0-13.442 5.53c-.198.516-.749.832-1.282.687C.858 9.463.534 8.91.722 8.39a12 12 0 0 1 16.405-6.749Z" fill="#0F0F0F"/><path d="M20.02 8.408a9 9 0 0 0-16.989 3.335c-.02.08-.031.163-.031.249v4.833c0 .824-.204 1.312-.357 1.569-.11.182-.207.269-.226.285a1 1 0 0 0 1.138 1.645c.077-.052.17-.122.308-.26.147-.147.324-.357.494-.641C4.704 18.846 5 18 5 16.825v-4.5a7.002 7.002 0 0 1 13.74-1.732c.353 1.489.525 2.493.574 3.57.058 1.29-.058 2.717-.309 5.23a1 1 0 1 0 1.99.198c.249-2.487.383-4.06.316-5.52-.048-1.062-.201-2.047-.47-3.264a8.985 8.985 0 0 0-.15-.655c-.156-.655-.371-1.156-.67-1.744ZM1.173 10.502c-.539-.099-1.06.258-1.114.803a12 12 0 0 0 .327 4.207c.138.53.708.802 1.225.62.517-.18.784-.746.654-1.278a10.018 10.018 0 0 1-.248-3.19c.045-.546-.306-1.063-.844-1.162ZM23.998 12.3c.01.547-.467.96-1.013.924-.546-.036-.954-.509-.972-1.056a10.02 10.02 0 0 0-3.51-7.297c-.416-.355-.53-.969-.218-1.418.312-.45.932-.564 1.355-.215a12 12 0 0 1 4.358 9.062Z" fill="#0F0F0F"/><path d="M17.994 12.755c-.024.552-.564.898-1.104.782l-.354-.075c-.54-.116-.87-.652-.905-1.204a3.64 3.64 0 0 0-3.718-3.404 3.639 3.639 0 0 0-3.551 3.578c-.01.552-.313 1.104-.846 1.245l-.35.093c-.534.14-1.09-.178-1.14-.728a6 6 0 1 1 11.968-.287ZM8 15.992a1 1 0 1 0-2 0c0 1.604-.344 2.854-.678 3.69-.168.42-.334.736-.452.94-.055.094-.11.186-.173.274A1 1 0 0 0 6.3 22.092c.108-.15.207-.306.3-.465a9.22 9.22 0 0 0 .578-1.201c.416-1.038.822-2.54.822-4.434ZM17 14.992a1 1 0 0 1 1 1c0 1.797-.128 3.216-.259 4.194-.065.49-.13.868-.181 1.128a8.08 8.08 0 0 1-.09.42 1 1 0 0 1-1.94-.483 17.557 17.557 0 0 0 .23-1.329c.118-.897.24-2.228.24-3.93a1 1 0 0 1 1-1Z" fill="#0F0F0F"/><path d="M11.824 11.94c.727-.25.812.39.905 1.012.21 1.393.057 3.614-.224 6.44a1 1 0 0 0 1.99.199c.275-2.759.467-5.248.212-6.938-.125-.827-.386-1.694-1.016-2.254-.722-.641-1.642-.65-2.515-.352-.428.147-.819.353-1.133.66-.324.317-.513.69-.615 1.077a4.19 4.19 0 0 0-.111 1.1c.003.348.03.745.05 1.132.082 1.547.132 3.773-1.286 7.082a1 1 0 1 0 1.838.788c1.582-3.691 1.536-6.254 1.445-7.976-.023-.43-.045-.755-.047-1.044-.005-.465.028-.763.507-.927Z" fill="#0F0F0F"/></svg>
